dist/svgs/devui-icons/op/set-manage-icon.svg

<?xml version="1.0" encoding="UTF-8"?>
<svg width="16px" height="16px" viewBox="0 0 16 16" version="1.1" xmlns="http://www.w3.org/2000/svg" xmlns:xlink="http://www.w3.org/1999/xlink">
    <title>操作/set-manage-icon</title>
    <desc>Created with Sketch.</desc>
    <g id="操作/set-manage-icon" stroke="none" stroke-width="1" fill="none" fill-rule="evenodd">
        <path d="M8,8 C5.790861,8 4,6.209139 4,4 C4,1.790861 5.790861,-5.68434189e-14 8,-5.68434189e-14 C10.209139,-5.68434189e-14 12,1.790861 12,4 C12,6.209139 10.209139,8 8,8 Z M8,6 C9.1045695,6 10,5.1045695 10,4 C10,2.8954305 9.1045695,2 8,2 C6.8954305,2 6,2.8954305 6,4 C6,5.1045695 6.8954305,6 8,6 Z M2.34141142,14 L13.6585886,14 C13.5351244,13.6506877 13.3802312,13.3162218 13.1973068,13 L15.418483,13 C15.7934929,13.9264314 16,14.9390996 16,16 L0,16 C0,11.9203823 3.05368842,8.55399184 7,8.06189375 L7,10.0829584 C4.83164694,10.4467392 3.05766142,11.9735423 2.34141142,14 Z M16,9 L16,12 L11.7324356,12 C11.3866262,12.5978014 10.7402824,13 10,13 C8.8954305,13 8,12.1045695 8,11 C8,9.8954305 8.8954305,9 10,9 C11.1045695,9 12,9.8954305 12,11 L13,11 L13,9 L14,9 L14,11 L15,11 L15,9 L16,9 Z M10,12 C10.5522847,12 11,11.5522847 11,11 C11,10.4477153 10.5522847,10 10,10 C9.44771525,10 9,10.4477153 9,11 C9,11.5522847 9.44771525,12 10,12 Z" id="形状" fill="#293040"></path>
    </g>
</svg>

<svg xmlns="http://www.w3.org/2000/svg" viewBox="0 0 16 16"><path fill-rule="evenodd" d="M8 8a4 4 0 110-8 4 4 0 010 8zm0-2a2 2 0 100-4 2 2 0 000 4zm-5.659 8H13.66a5.97 5.97 0 00-.462-1h2.221a7.98 7.98 0 01.582 3H0a8.001 8.001 0 017-7.938v2.021A6.009 6.009 0 002.341 14zM16 9v3h-4.268A2 2 0 1112 11h1V9h1v2h1V9h1zm-6 3a1 1 0 100-2 1 1 0 000 2z"/></svg>
